icons/svg/icons8/chip.svg

<svg width="26" height="26" viewBox="0 0 26 26" fill="none" xmlns="http://www.w3.org/2000/svg">
<path d="M17.5331 12.422C17.4981 12.491 17.4341 12.563 17.3391 12.635L16.7771 13.004C16.6281 13.092 16.5201 13.117 16.4551 13.079C16.3861 13.039 16.2991 12.958 16.1911 12.826C16.0271 12.603 15.8421 12.37 15.6371 12.13C15.4291 11.89 15.1961 11.635 14.9311 11.372C14.4191 10.86 13.9931 10.775 13.6541 11.116C13.5581 11.21 13.4951 11.3 13.4611 11.386C13.4321 11.47 13.4261 11.564 13.4511 11.663C13.4721 11.764 13.5201 11.874 13.5911 11.997C13.6621 12.121 13.7551 12.27 13.8731 12.447C14.0651 12.747 14.2511 13.053 14.4271 13.364C14.6031 13.677 14.7271 13.991 14.7991 14.307C14.8701 14.626 14.8601 14.947 14.7691 15.275C14.6781 15.601 14.4651 15.931 14.1311 16.266C13.8521 16.543 13.5701 16.739 13.2871 16.854C13.0011 16.967 12.7161 17.021 12.4321 17.013C12.1451 17.004 11.8661 16.941 11.5851 16.825C11.3061 16.713 11.0341 16.556 10.7691 16.364L10.0461 17.085C10.0161 17.116 9.97112 17.142 9.91512 17.165C9.85512 17.189 9.79112 17.165 9.71812 17.094L9.05912 16.433C8.99312 16.369 8.96512 16.307 8.97312 16.252C8.98512 16.196 9.01012 16.147 9.05912 16.099L9.74712 15.411C9.54612 15.188 9.33912 14.934 9.12612 14.648C8.90912 14.362 8.74312 14.08 8.62512 13.796C8.53812 13.601 8.51012 13.468 8.54212 13.395C8.57612 13.322 8.64112 13.252 8.74112 13.189L9.34712 12.792C9.47212 12.716 9.56412 12.689 9.62212 12.713C9.68212 12.735 9.76012 12.815 9.86012 12.951C9.95312 13.067 10.0561 13.2 10.1681 13.339C10.2791 13.479 10.3971 13.624 10.5211 13.771C10.6471 13.918 10.7691 14.062 10.8911 14.205C11.0151 14.347 11.1361 14.475 11.2551 14.594C11.5531 14.893 11.8171 15.063 12.0441 15.108C12.2691 15.152 12.4711 15.086 12.6471 14.91C12.7521 14.805 12.8251 14.703 12.8641 14.606C12.9021 14.509 12.9111 14.405 12.8891 14.295C12.8691 14.188 12.8231 14.069 12.7521 13.939C12.6821 13.81 12.5881 13.657 12.4701 13.483C12.2721 13.176 12.0881 12.865 11.9201 12.55C11.7531 12.237 11.6351 11.92 11.5681 11.607C11.5001 11.294 11.5051 10.977 11.5891 10.659C11.6691 10.342 11.8671 10.029 12.1791 9.71499C12.6731 9.22099 13.2081 8.97499 13.7851 8.97499C14.3571 8.97499 14.9361 9.19799 15.5131 9.64599L16.2461 8.91399C16.2921 8.86599 16.3431 8.83999 16.3991 8.82799C16.4541 8.81899 16.5141 8.84799 16.5801 8.91399L17.2411 9.57499C17.3131 9.64599 17.3351 9.71099 17.3131 9.76799C17.2891 9.82599 17.2621 9.87199 17.2341 9.90199L16.5091 10.625C16.6781 10.819 16.8511 11.04 17.0271 11.286C17.2061 11.533 17.3461 11.781 17.4541 12.027C17.5401 12.219 17.5701 12.349 17.5331 12.422Z" fill="#333333"/>
<path d="M13 0.187988C5.92399 0.187988 0.187988 5.92399 0.187988 13C0.187988 20.076 5.92399 25.813 13 25.813C20.076 25.813 25.813 20.076 25.813 13C25.813 5.92399 20.076 0.187988 13 0.187988ZM21.858 5.63199C22.689 6.62999 23.345 7.77499 23.802 9.01599L21.525 10.332C21.127 9.05899 20.444 7.91499 19.562 6.95799L21.858 5.63199ZM11.048 1.65199C11.685 1.54299 12.333 1.47499 13 1.47499C13.667 1.47499 14.315 1.54299 14.952 1.65299V4.28999C14.322 4.14899 13.671 4.06999 13 4.06999C12.329 4.06999 11.678 4.14899 11.048 4.28999V1.65199ZM4.14199 5.63099L6.43799 6.95699C5.55599 7.91399 4.87399 9.05899 4.47499 10.332L2.19699 9.01599C2.65399 7.77399 3.31099 6.62999 4.14199 5.63099ZM4.14199 20.369C3.31099 19.37 2.65499 18.225 2.19799 16.984L4.47499 15.668C4.87299 16.941 5.55599 18.086 6.43799 19.043L4.14199 20.369ZM14.952 24.348C14.315 24.457 13.667 24.526 13 24.526C12.333 24.526 11.685 24.458 11.048 24.348V21.71C11.678 21.851 12.329 21.93 13 21.93C13.671 21.93 14.322 21.851 14.952 21.71V24.348ZM13 20.564C8.82199 20.564 5.43599 17.177 5.43599 13C5.43599 8.82299 8.82199 5.43599 13 5.43599C17.178 5.43599 20.564 8.82199 20.564 13C20.564 17.178 17.178 20.564 13 20.564ZM21.858 20.369L19.562 19.043C20.444 18.086 21.126 16.941 21.525 15.668L23.802 16.984C23.346 18.226 22.689 19.37 21.858 20.369Z" fill="#333333"/>
</svg>

<?xml version="1.0" encoding="utf-8"?>
<!-- Generator: Adobe Illustrator 15.0.0, SVG Export Plug-In . SVG Version: 6.00 Build 0)  -->
<!DOCTYPE svg PUBLIC "-//W3C//DTD SVG 1.1//EN" "http://www.w3.org/Graphics/SVG/1.1/DTD/svg11.dtd">
<svg version="1.1" id="Layer_1" xmlns="http://www.w3.org/2000/svg" xmlns:xlink="http://www.w3.org/1999/xlink" x="0px" y="0px"
	 width="26px" height="26px" viewBox="0 0 26 26" enable-background="new 0 0 26 26" xml:space="preserve">
<rect fill="none" width="26" height="26"/>
<path fill="#333333" d="M17.533,12.422c-0.035,0.069-0.099,0.141-0.194,0.213l-0.562,0.369c-0.149,0.088-0.257,0.113-0.322,0.075
	c-0.069-0.04-0.156-0.121-0.264-0.253c-0.164-0.223-0.349-0.456-0.554-0.696c-0.208-0.24-0.441-0.495-0.706-0.758
	c-0.512-0.512-0.938-0.597-1.277-0.256c-0.096,0.094-0.159,0.184-0.193,0.27c-0.029,0.084-0.035,0.178-0.01,0.277
	c0.021,0.101,0.069,0.211,0.14,0.334c0.071,0.124,0.164,0.273,0.282,0.45c0.192,0.3,0.378,0.606,0.554,0.917
	c0.176,0.313,0.3,0.627,0.372,0.943c0.071,0.319,0.061,0.64-0.03,0.968c-0.091,0.326-0.304,0.656-0.638,0.991
	c-0.279,0.277-0.561,0.473-0.844,0.588c-0.286,0.113-0.571,0.167-0.855,0.159c-0.287-0.009-0.566-0.072-0.847-0.188
	c-0.279-0.112-0.551-0.269-0.816-0.461l-0.723,0.721c-0.03,0.031-0.075,0.057-0.131,0.08c-0.06,0.024-0.124,0-0.197-0.071
	l-0.659-0.661c-0.066-0.064-0.094-0.126-0.086-0.181c0.012-0.056,0.037-0.105,0.086-0.153l0.688-0.688
	c-0.201-0.223-0.408-0.477-0.621-0.763c-0.217-0.286-0.383-0.568-0.501-0.852c-0.087-0.195-0.115-0.328-0.083-0.401
	c0.034-0.073,0.099-0.143,0.199-0.206l0.606-0.397c0.125-0.076,0.217-0.103,0.275-0.079c0.06,0.022,0.138,0.102,0.238,0.238
	c0.093,0.116,0.196,0.249,0.308,0.388c0.111,0.14,0.229,0.285,0.353,0.432c0.126,0.147,0.248,0.291,0.37,0.434
	c0.124,0.142,0.245,0.27,0.364,0.389c0.298,0.299,0.562,0.469,0.789,0.514c0.225,0.044,0.427-0.022,0.603-0.198
	c0.105-0.105,0.178-0.207,0.217-0.304c0.038-0.097,0.047-0.201,0.025-0.311c-0.02-0.107-0.066-0.226-0.137-0.356
	c-0.07-0.129-0.164-0.282-0.282-0.456c-0.198-0.307-0.382-0.618-0.55-0.933c-0.167-0.313-0.285-0.63-0.352-0.943
	c-0.068-0.313-0.063-0.63,0.021-0.948c0.08-0.317,0.278-0.63,0.59-0.944c0.494-0.494,1.029-0.74,1.606-0.74
	c0.572,0,1.151,0.223,1.728,0.671l0.733-0.732c0.046-0.048,0.097-0.074,0.153-0.086c0.055-0.009,0.115,0.02,0.181,0.086l0.661,0.661
	c0.072,0.071,0.094,0.136,0.072,0.193c-0.024,0.058-0.051,0.104-0.079,0.134l-0.725,0.723c0.169,0.194,0.342,0.415,0.518,0.661
	c0.179,0.247,0.319,0.495,0.427,0.741C17.54,12.219,17.57,12.349,17.533,12.422z"/>
<path fill="#333333" d="M13,0.188C5.924,0.188,0.188,5.924,0.188,13S5.924,25.813,13,25.813S25.813,20.076,25.813,13
	S20.076,0.188,13,0.188z M21.858,5.632c0.831,0.998,1.487,2.143,1.944,3.384l-2.277,1.316c-0.398-1.273-1.081-2.417-1.963-3.374
	L21.858,5.632z M11.048,1.652C11.685,1.543,12.333,1.475,13,1.475s1.315,0.068,1.952,0.178V4.29C14.322,4.149,13.671,4.07,13,4.07
	s-1.322,0.079-1.952,0.22V1.652z M4.142,5.631l2.296,1.326c-0.882,0.957-1.564,2.102-1.963,3.375L2.197,9.016
	C2.654,7.774,3.311,6.63,4.142,5.631z M4.142,20.369c-0.831-0.999-1.487-2.144-1.944-3.385l2.277-1.316
	c0.398,1.273,1.081,2.418,1.963,3.375L4.142,20.369z M14.952,24.348c-0.637,0.109-1.285,0.178-1.952,0.178s-1.315-0.068-1.952-0.178
	V21.71c0.63,0.141,1.281,0.22,1.952,0.22s1.322-0.079,1.952-0.22V24.348z M13,20.564c-4.178,0-7.564-3.387-7.564-7.564
	S8.822,5.436,13,5.436S20.564,8.822,20.564,13S17.178,20.564,13,20.564z M21.858,20.369l-2.296-1.326
	c0.882-0.957,1.564-2.102,1.963-3.375l2.277,1.316C23.346,18.226,22.689,19.37,21.858,20.369z"/>
</svg>
